X: 1
T: Bob Of Fettercairn, The
M: 4/4
L: 1/8
R: reel
K: Gmaj
dBGB dBGB|dBdg f2df|e^cAc ecAc|edef gage|
dBGB dBGB|dBdg f2df|afge fdgB|(3AAA Bd e2eg:|
|:dgBg dgBg|dgBg f2df|ea^ca eaca|edef gage|
dgBg dgBg|dgBg f2df|afge fdgB|(3AAA Bd e2eg:|
